assets/js/back-end/assets/icons/yes-no.svg

<svg clip-rule="evenodd" fill-rule="evenodd" stroke-linejoin="round" stroke-miterlimit="2" viewBox="0 0 28 28" xmlns="http://www.w3.org/2000/svg"><path d="m3.593 3.475h21.773v21.371h-21.773z" fill="#ebebeb"/><path d="m28 3c0-1.656-1.344-3-3-3h-22c-1.656 0-3 1.344-3 3v22c0 1.656 1.344 3 3 3h22c1.656 0 3-1.344 3-3zm-13.605 6.944-7.097 7.097-3.065-3.065-1.316 1.316 4.381 4.382 8.413-8.413 2.712 2.712-4.028 4.028 1.343 1.343 4.028-4.028 4.03 4.028 1.342-1.343-4.028-4.028 4.028-4.029-1.342-1.342-4.03 4.028-4.028-4.028z" fill="#4dabf7"/></svg>

<?xml version="1.0" encoding="UTF-8" standalone="no"?>
<!DOCTYPE svg PUBLIC "-//W3C//DTD SVG 1.1//EN" "http://www.w3.org/Graphics/SVG/1.1/DTD/svg11.dtd">
<svg width="100%" height="100%" viewBox="0 0 28 28" version="1.1" xmlns="http://www.w3.org/2000/svg" xmlns:xlink="http://www.w3.org/1999/xlink" xml:space="preserve" xmlns:serif="http://www.serif.com/" style="fill-rule:evenodd;clip-rule:evenodd;stroke-linejoin:round;stroke-miterlimit:2;">
    <path d="M28,3C28,1.344 26.656,0 25,0L3,0C1.344,0 0,1.344 0,3L0,25C0,26.656 1.344,28 3,28L25,28C26.656,28 28,26.656 28,25L28,3ZM14.395,9.944L7.298,17.041L4.233,13.976L2.917,15.292L7.298,19.674L15.711,11.261L18.423,13.973L14.395,18.001L15.738,19.344L19.766,15.316L23.796,19.344L25.138,18.001L21.11,13.973L25.138,9.944L23.796,8.602L19.766,12.63L15.738,8.602L14.395,9.944Z" style="fill:rgb(77,171,247);"/>
</svg>
